static/img/kroki/d6290f39b2bd16d9767d42cba16ed734.svg

<?xml version="1.0" encoding="us-ascii" standalone="no"?><svg xmlns="http://www.w3.org/2000/svg" xmlns:xlink="http://www.w3.org/1999/xlink" contentStyleType="text/css" height="374px" preserveAspectRatio="none" style="width:342px;height:374px;" version="1.1" viewBox="0 0 342 374" width="342px" zoomAndPan="magnify"><defs/><g><!--class azure_mysql_server_configuration--><g id="elem_azure_mysql_server_configuration"><rect codeLine="23" fill="#3D176E" height="39.7891" id="azure_mysql_server_configuration" rx="2.5" ry="2.5" style="stroke:#000D19;stroke-width:0.5;" width="328" x="7" y="328.58"/><ellipse cx="22" cy="348.4745" fill="#ADD1B2" rx="11" ry="11" style="stroke:#181818;stroke-width:1.0;"/><path d="M24.9688,354.1152 Q24.3906,354.412 23.75,354.5527 Q23.1094,354.7089 22.4063,354.7089 Q19.9063,354.7089 18.5781,353.0683 Q17.2656,351.412 17.2656,348.287 Q17.2656,345.162 18.5781,343.5058 Q19.9063,341.8495 22.4063,341.8495 Q23.1094,341.8495 23.75,342.0058 Q24.4063,342.162 24.9688,342.4589 L24.9688,345.1777 Q24.3438,344.5995 23.75,344.3339 Q23.1563,344.0527 22.5313,344.0527 Q21.1875,344.0527 20.5,345.1308 Q19.8125,346.1933 19.8125,348.287 Q19.8125,350.3808 20.5,351.4589 Q21.1875,352.5214 22.5313,352.5214 Q23.1563,352.5214 23.75,352.2558 Q24.3438,351.9745 24.9688,351.3964 L24.9688,354.1152 Z " fill="#000000"/><text fill="#D9B8FF" font-family="Helvetica" font-size="17" lengthAdjust="spacing" textLength="286" x="41" y="354.3598">azure_mysql_server_configuration</text></g><!--class microsoft_resource--><g id="elem_microsoft_resource"><rect codeLine="26" fill="#3D176E" height="39.7891" id="microsoft_resource" rx="2.5" ry="2.5" style="stroke:#000D19;stroke-width:0.5;" width="200" x="71" y="167.79"/><ellipse cx="86" cy="187.6845" fill="#ADD1B2" rx="11" ry="11" style="stroke:#181818;stroke-width:1.0;"/><path d="M88.9688,193.3252 Q88.3906,193.622 87.75,193.7627 Q87.1094,193.9189 86.4063,193.9189 Q83.9063,193.9189 82.5781,192.2783 Q81.2656,190.622 81.2656,187.497 Q81.2656,184.372 82.5781,182.7158 Q83.9063,181.0595 86.4063,181.0595 Q87.1094,181.0595 87.75,181.2158 Q88.4063,181.372 88.9688,181.6689 L88.9688,184.3877 Q88.3438,183.8095 87.75,183.5439 Q87.1563,183.2627 86.5313,183.2627 Q85.1875,183.2627 84.5,184.3408 Q83.8125,185.4033 83.8125,187.497 Q83.8125,189.5908 84.5,190.6689 Q85.1875,191.7314 86.5313,191.7314 Q87.1563,191.7314 87.75,191.4658 Q88.3438,191.1845 88.9688,190.6064 L88.9688,193.3252 Z " fill="#000000"/><text fill="#D9B8FF" font-family="Helvetica" font-size="17" lengthAdjust="spacing" textLength="158" x="105" y="193.5698">microsoft_resource</text></g><!--class resource--><g id="elem_resource"><rect codeLine="29" fill="#3D176E" height="39.7891" id="resource" rx="2.5" ry="2.5" style="stroke:#000D19;stroke-width:0.5;" width="113" x="114.5" y="7"/><ellipse cx="129.5" cy="26.8945" fill="#ADD1B2" rx="11" ry="11" style="stroke:#181818;stroke-width:1.0;"/><path d="M132.4688,32.5352 Q131.8906,32.832 131.25,32.9727 Q130.6094,33.1289 129.9063,33.1289 Q127.4063,33.1289 126.0781,31.4883 Q124.7656,29.832 124.7656,26.707 Q124.7656,23.582 126.0781,21.9258 Q127.4063,20.2695 129.9063,20.2695 Q130.6094,20.2695 131.25,20.4258 Q131.9063,20.582 132.4688,20.8789 L132.4688,23.5977 Q131.8438,23.0195 131.25,22.7539 Q130.6563,22.4727 130.0313,22.4727 Q128.6875,22.4727 128,23.5508 Q127.3125,24.6133 127.3125,26.707 Q127.3125,28.8008 128,29.8789 Q128.6875,30.9414 130.0313,30.9414 Q130.6563,30.9414 131.25,30.6758 Q131.8438,30.3945 132.4688,29.8164 L132.4688,32.5352 Z " fill="#000000"/><text fill="#D9B8FF" font-family="Helvetica" font-size="17" lengthAdjust="spacing" textLength="71" x="148.5" y="32.7798">resource</text></g><!--reverse link microsoft_resource to azure_mysql_server_configuration--><g id="link_microsoft_resource_azure_mysql_server_configuration"><path codeLine="32" d="M171,225.84 C171,256.36 171,297.69 171,328.25 " fill="none" id="microsoft_resource-backto-azure_mysql_server_configuration" style="stroke:#FFAF37;stroke-width:2.0;"/><polygon fill="none" points="171,207.84,165,225.84,177,225.84,171,207.84" style="stroke:#FFAF37;stroke-width:2.0;"/></g><!--reverse link resource to microsoft_resource--><g id="link_resource_microsoft_resource"><path codeLine="33" d="M171,65.05 C171,95.57 171,136.9 171,167.46 " fill="none" id="resource-backto-microsoft_resource" style="stroke:#FFAF37;stroke-width:2.0;"/><polygon fill="none" points="171,47.05,165,65.05,177,65.05,171,47.05" style="stroke:#FFAF37;stroke-width:2.0;"/></g><!--SRC=[XT1DJm9130RW-_wAIJYJW4HX4oz8OlH2Z7ZVb9aEJDYPOgSB0VM_Au9csENZsZvfttRk32hqIzaeZtwA7BEuS64935uDcMazef9OjQm5s-lNcuyKv2eOWqVrXEKAnMceYxUvquk0CQgRfFK0UZ5ZgeBPZnU647zQ62HHen9Y78gmcrQ2IHYJJmVMrcLzQAjdklqxR31YWtmWdKx7TFCwkRhgujt_OkAsgBhfqyOas8ZPMF6hBgRSYIHauz2__jcCBs2C2pDrczHUzvau81_L9tCmjDvf2sLCrqH1HfBD4aUDgp0V6Di_YP_FuKplNgTWMp4MVXFVoo8Yhv0BJS6wMSKWZeBwoBAlW_LECqMoKZ16gbXZsZskdR3td-rs- -h2hEQRWx9l]--></g></svg>

<svg xmlns="http://www.w3.org/2000/svg" width="342" height="374" viewBox="0 0 342 374"><rect width="328" height="39.789" x="7" y="328.58" fill="#3D176E" rx="2.5" ry="2.5" style="stroke:#000d19;stroke-width:.5"/><circle cx="22" cy="348.474" r="11" fill="#ADD1B2" style="stroke:#181818;stroke-width:1"/><path d="M24.969 354.115q-.578.297-1.219.438-.64.156-1.344.156-2.5 0-3.828-1.64-1.312-1.657-1.312-4.782t1.312-4.781q1.328-1.656 3.828-1.656.703 0 1.344.156.656.156 1.219.453v2.719q-.625-.579-1.219-.844-.594-.281-1.219-.281-1.343 0-2.031 1.078-.687 1.062-.687 3.156t.687 3.172q.688 1.062 2.031 1.062.625 0 1.219-.265.594-.281 1.219-.86z"/><text x="41" y="354.36" fill="#D9B8FF" font-family="Helvetica" font-size="17" textLength="286">azure_mysql_server_configuration</text><rect width="200" height="39.789" x="71" y="167.79" fill="#3D176E" rx="2.5" ry="2.5" style="stroke:#000d19;stroke-width:.5"/><circle cx="86" cy="187.685" r="11" fill="#ADD1B2" style="stroke:#181818;stroke-width:1"/><path d="M88.969 193.325q-.578.297-1.219.438-.64.156-1.344.156-2.5 0-3.828-1.64-1.312-1.657-1.312-4.782t1.312-4.781q1.328-1.656 3.828-1.656.703 0 1.344.156.656.156 1.219.453v2.719q-.625-.578-1.219-.844-.594-.281-1.219-.281-1.344 0-2.031 1.078-.687 1.062-.687 3.156t.687 3.172q.688 1.062 2.031 1.062.625 0 1.219-.265.594-.281 1.219-.86z"/><text x="105" y="193.57" fill="#D9B8FF" font-family="Helvetica" font-size="17" textLength="158">microsoft_resource</text><rect width="113" height="39.789" x="114.5" y="7" fill="#3D176E" rx="2.5" ry="2.5" style="stroke:#000d19;stroke-width:.5"/><circle cx="129.5" cy="26.895" r="11" fill="#ADD1B2" style="stroke:#181818;stroke-width:1"/><path d="M132.469 32.535q-.578.297-1.219.438-.64.156-1.344.156-2.5 0-3.828-1.64-1.312-1.657-1.312-4.782t1.312-4.781q1.328-1.656 3.828-1.656.703 0 1.344.156.656.156 1.219.453v2.719q-.625-.578-1.219-.844-.594-.281-1.219-.281-1.344 0-2.031 1.078-.687 1.062-.687 3.156t.687 3.172q.688 1.062 2.031 1.062.625 0 1.219-.265.594-.281 1.219-.86z"/><text x="148.5" y="32.78" fill="#D9B8FF" font-family="Helvetica" font-size="17" textLength="71">resource</text><path fill="none" d="M171 225.84v102.41m0-120.41-6 18h12zm0-142.79v102.41m0-120.41-6 18h12z" style="stroke:#ffaf37;stroke-width:2"/></svg>
